X: 0573
T: COLLEGE HORNPIPE
B: Oliver Ditson "The Boston Collection of Instrumental Music" 1910 p.57 #3
F: http://conquest.imslp.info/files/imglnks/usimg/8/8f/IMSLP175643-PMLP309456-bostoncollection00bost_bw.pdf
M: 2/4
L: 1/16
K: C
cB |\
c2C2C2 GF | EGc2- cedc | d2D2D2 dc | Bdg2 g2ab |\
c'bag agfe | fedc cBAG | AcBd cedf | e2c2c2 :|
|: GE |\
EGcG EGcG | A2F2F2 AG | ^FAdA FAdA | B2G2G2 cB |\
c2a2 agfe | fedc cBAG | AcBd cedf | e2c2c2 :|

%%sep 1 1 500
%%sep 1 1 500
